;FLAVOR:Marlin
;TIME:4498
;Filament used: 3.77141m
;Layer height: 0.2
;MINX:147.018
;MINY:127.757
;MINZ:0.2
;MAXX:202.985
;MAXY:211.689
;MAXZ:25.8
;Generated with Cura_SteamEngine 5.2.2
M140 S60
M105
M190 S60
M104 S200
M105
M109 S200
M82 ;absolute extrusion mode
M201 X500.00 Y500.00 Z100.00 E5000.00 ;Setup machine max acceleration
M203 X500.00 Y500.00 Z10.00 E50.00 ;Setup machine max feedrate
M204 P500.00 R1000.00 T500.00 ;Setup Print/Retract/Travel acceleration
M205 X8.00 Y8.00 Z0.40 E5.00 ;Setup Jerk
M220 S100 ;Reset Feedrate
M221 S100 ;Reset Flowrate

G28 ;Home
M420 S1 Z2 ;Enable ABL using saved Mesh and Fade Height

G92 E0 ;Reset Extruder
G1 Z2.0 F3000 ;Move Z Axis up
G1 X10.1 Y20 Z0.28 F5000.0 ;Move to start position
G1 X10.1 Y200.0 Z0.28 F1500.0 E15 ;Draw the first line
G1 X10.4 Y200.0 Z0.28 F5000.0 ;Move to side a little
G1 X10.4 Y20 Z0.28 F1500.0 E30 ;Draw the second line
G92 E0 ;Reset Extruder
G1 Z2.0 F3000 ;Move Z Axis up

G92 E0
G92 E0
;LAYER_COUNT:129
;LAYER:0
M107
G0 F6000 X151.375 Y134.258 Z0.2
;TYPE:SKIRT
G1 F1200 X152.006 Y133.556 E0.03139
G1 X152.456 Y133.096 E0.0528
G1 X152.9 Y132.663 E0.07342
G1 X153.604 Y132.044 E0.1046
G1 X154.072 Y131.667 E0.12459
G1 X154.596 Y131.266 E0.14654
G1 X155.363 Y130.742 E0.17743
G1 X155.881 Y130.419 E0.19774
G1 X156.394 Y130.114 E0.21759
G1 X157.375 Y129.605 E0.25435
G1 X158.181 Y129.237 E0.28382
G1 X159.334 Y128.787 E0.32498
G1 X159.94 Y128.589 E0.34619
G1 X160.558 Y128.403 E0.36765
G1 X161.47 Y128.179 E0.39889
G1 X161.974 Y128.078 E0.41598
G1 X162.605 Y127.966 E0.4373
G1 X163.616 Y127.841 E0.47118
G1 X164.268 Y127.791 E0.49293
G1 X164.876 Y127.758 E0.51318
G1 X165.839 Y127.757 E0.54521
G1 X166.43 Y127.782 E0.56489
G1 X167.054 Y127.823 E0.58568
G1 X168.01 Y127.937 E0.61771
G1 X168.651 Y128.042 E0.63931
G1 X169.211 Y128.145 E0.65825
G1 X170.192 Y128.382 E0.69182
G1 X170.74 Y128.541 E0.71079
G1 X171.429 Y128.759 E0.73483
G1 X172.307 Y129.088 E0.76601
G1 X173.05 Y129.434 E0.79328
G1 X173.873 Y129.883 E0.82446
G1 X174.655 Y130.401 E0.85566
G1 X175.198 Y130.821 E0.87849
G1 X176.057 Y131.53 E0.91553
G1 X176.538 Y131.941 E0.93658
G1 X177.335 Y132.652 E0.9721
G1 X179.269 Y134.337 E1.05741
G1 X181.207 Y135.931 E1.14087
G1 X183.221 Y137.495 E1.22569
G1 X185.226 Y138.962 E1.30832
G1 X187.315 Y140.401 E1.39269
G1 X189.399 Y141.754 E1.47533
G1 X191.599 Y143.093 E1.56099
G1 X193.727 Y144.309 E1.64251
G1 X197.109 Y146.088 E1.7696
G1 X197.92 Y146.56 E1.80081
G1 X198.687 Y147.098 E1.83197
G1 X199.406 Y147.701 E1.86319
G1 X200.071 Y148.362 E1.89437
G1 X200.677 Y149.078 E1.92557
G1 X201.22 Y149.843 E1.95677
G1 X201.696 Y150.651 E1.98796
G1 X202.101 Y151.497 E2.01916
G1 X202.433 Y152.374 E2.05035
G1 X202.689 Y153.276 E2.08153
G1 X202.867 Y154.197 E2.11273
G1 X202.966 Y155.13 E2.14394
G1 X202.985 Y156.067 E2.17511
G1 X202.925 Y157.003 E2.20631
G1 X202.784 Y157.931 E2.23753
G1 X202.565 Y158.843 E2.26872
G1 X202.255 Y159.771 E2.30126
G1 X201.951 Y160.562 E2.32945
G1 X201.058 Y162.986 E2.41537
G1 X200.249 Y165.391 E2.49976
G1 X199.512 Y167.806 E2.58374
G1 X198.855 Y170.201 E2.66634
G1 X198.256 Y172.654 E2.75033
G1 X197.715 Y175.178 E2.83618
G1 X197.273 Y177.57 E2.91709
G1 X196.878 Y180.101 E3.00229
G1 X196.561 Y182.592 E3.08581
G1 X196.316 Y185.086 E3.16916
G1 X196.14 Y187.586 E3.25251
G1 X196.035 Y190.131 E3.33723
G1 X196 Y192.639 E3.42066
G1 X195.999 Y200.104 E3.66894
G1 X195.989 Y200.831 E3.69313
G1 X195.936 Y201.768 E3.72434
G1 X195.804 Y202.696 E3.75552
G1 X195.593 Y203.61 E3.78672
G1 X195.304 Y204.502 E3.8179
G1 X194.941 Y205.367 E3.8491
G1 X194.506 Y206.198 E3.8803
G1 X194.001 Y206.988 E3.91149
G1 X193.431 Y207.733 E3.94269
G1 X192.8 Y208.427 E3.97388
G1 X192.111 Y209.064 E4.00509
G1 X191.371 Y209.64 E4.03628
G1 X190.585 Y210.151 E4.06746
G1 X189.758 Y210.593 E4.09865
G1 X188.896 Y210.963 E4.12985
G1 X188.006 Y211.258 E4.16104
G1 X187.094 Y211.477 E4.19223
G1 X186.167 Y211.617 E4.22341
G1 X185.299 Y211.676 E4.25235
G1 X184.67 Y211.689 E4.27328
G1 X181.55 Y211.688 E4.37705
G1 X180.849 Y211.678 E4.40036
G1 X179.913 Y211.625 E4.43155
G1 X178.984 Y211.492 E4.46276
G1 X178.071 Y211.28 E4.49393
G1 X177.178 Y210.992 E4.52514
G1 X176.314 Y210.628 E4.55632
G1 X175.483 Y210.192 E4.58754
G1 X174.693 Y209.687 E4.61872
G1 X173.949 Y209.117 E4.6499
G1 X173.256 Y208.485 E4.68109
G1 X172.619 Y207.796 E4.7123
G1 X172.043 Y207.056 E4.74349
G1 X171.405 Y206.048 E4.78317
G1 X171.09 Y205.483 E4.80468
G1 X170.249 Y203.929 E4.86345
G1 X168.997 Y201.766 E4.94658
G1 X167.677 Y199.628 E5.03015
G1 X166.294 Y197.52 E5.114
G1 X164.843 Y195.443 E5.19827
G1 X163.34 Y193.413 E5.28228
G1 X161.82 Y191.479 E5.3641
G1 X160.172 Y189.499 E5.44978
G1 X158.314 Y187.395 E5.54314
G1 X157.785 Y186.759 E5.57065
G1 X157.227 Y186.005 E5.60185
G1 X156.735 Y185.206 E5.63306
G1 X156.328 Y184.418 E5.66256
G1 X155.944 Y183.563 E5.69373
G1 X155.546 Y182.374 E5.73543
G1 X155.431 Y181.951 E5.75001
G1 X155.224 Y181.036 E5.78122
G1 X155.109 Y180.237 E5.80806
G1 X155.017 Y179.376 E5.83686
G1 X154.907 Y178.216 E5.87562
G1 X154.601 Y175.726 E5.95906
G1 X154.218 Y173.2 E6.04404
G1 X153.777 Y170.758 E6.12657
G1 X153.264 Y168.314 E6.20963
G1 X152.674 Y165.854 E6.29377
G1 X152.016 Y163.418 E6.3777
G1 X151.286 Y160.989 E6.46205
G1 X150.498 Y158.615 E6.54525
G1 X149.633 Y156.233 E6.62954
G1 X148.681 Y153.828 E6.71557
G1 X148.305 Y152.919 E6.74828
G1 X147.977 Y152.015 E6.78027
G1 X147.787 Y151.41 E6.80136
G1 X147.614 Y150.807 E6.82223
G1 X147.399 Y149.876 E6.85401
G1 X147.281 Y149.239 E6.87555
G1 X147.185 Y148.646 E6.89553
G1 X147.082 Y147.694 E6.92738
G1 X147.045 Y147.12 E6.94651
G1 X147.018 Y146.492 E6.96742
G1 X147.029 Y145.498 E7.00048
G1 X147.065 Y144.86 E7.02174
G1 X147.118 Y144.215 E7.04326
G1 X147.24 Y143.3 E7.07396
G1 X147.348 Y142.69 E7.09457
G1 X147.473 Y142.071 E7.11557
G1 X147.713 Y141.142 E7.14748
G1 X147.887 Y140.571 E7.16734
G1 X148.069 Y140.015 E7.1868
G1 X148.438 Y139.064 E7.22072
G1 X148.705 Y138.461 E7.24266
G1 X148.956 Y137.927 E7.26228
G1 X149.464 Y136.988 E7.29779
G1 X149.913 Y136.247 E7.32661
G1 X150.602 Y135.24 E7.36719
G1 X150.992 Y134.733 E7.38847
G1 X151.375 Y134.258 E7.40876
G0 F6000 X151.684 Y134.512
G1 F1200 X152.292 Y133.835 E7.43903
G1 X152.742 Y133.375 E7.46043
G1 X153.176 Y132.952 E7.48059
G1 X153.855 Y132.355 E7.51066
G1 X154.323 Y131.978 E7.53065
G1 X154.836 Y131.586 E7.55212
G1 X155.574 Y131.081 E7.58186
G1 X156.092 Y130.758 E7.60217
G1 X156.596 Y130.459 E7.62166
G1 X157.541 Y129.969 E7.65706
G1 X158.347 Y129.601 E7.68653
G1 X159.458 Y129.167 E7.7262
G1 X160.064 Y128.969 E7.74741
G1 X160.67 Y128.787 E7.76845
G1 X161.548 Y128.572 E7.79852
G1 X162.35 Y128.415 E7.8257
G1 X162.672 Y128.36 E7.83656
G1 X163.646 Y128.24 E7.8692
G1 X164.298 Y128.19 E7.89095
G1 X164.894 Y128.158 E7.9108
G1 X165.822 Y128.156 E7.94167
G1 X166.413 Y128.181 E7.96134
G1 X167.024 Y128.222 E7.98171
G1 X167.946 Y128.331 E8.01259
G1 X168.587 Y128.436 E8.03419
G1 X169.135 Y128.538 E8.05273
G1 X170.081 Y128.766 E8.0851
G1 X170.965 Y129.028 E8.11577
G1 X171.305 Y129.139 E8.12766
G1 X172.167 Y129.463 E8.15829
G1 X172.873 Y129.793 E8.18421
G1 X173.681 Y130.234 E8.21483
G1 X174.447 Y130.745 E8.24545
G1 X174.943 Y131.13 E8.26634
G1 X175.964 Y131.975 E8.31042
G1 X176.442 Y132.389 E8.33145
G1 X177.048 Y132.932 E8.35851
G1 X179.019 Y134.649 E8.44545
G1 X180.953 Y136.24 E8.52875
G1 X182.985 Y137.818 E8.61432
G1 X184.986 Y139.282 E8.69678
G1 X187.092 Y140.733 E8.78184
G1 X189.204 Y142.104 E8.86559
G1 X191.388 Y143.433 E8.95062
G1 X193.532 Y144.658 E9.03275
G1 X196.923 Y146.442 E9.16019
G1 X197.718 Y146.906 E9.19081
G1 X198.471 Y147.436 E9.22144
G1 X199.174 Y148.031 E9.25207
G1 X199.823 Y148.683 E9.28267
G1 X200.413 Y149.39 E9.31329
G1 X200.939 Y150.146 E9.34393
G1 X201.398 Y150.944 E9.37454
G1 X201.786 Y151.779 E9.40517
G1 X202.1 Y152.644 E9.43578
G1 X202.338 Y153.534 E9.46642
G1 X202.497 Y154.44 E9.49701
G1 X202.578 Y155.357 E9.52763
G1 X202.578 Y156.278 E9.55826
G1 X202.499 Y157.195 E9.58888
G1 X202.34 Y158.102 E9.6195
G1 X202.103 Y158.992 E9.65014
G1 X201.882 Y159.627 E9.6725
G1 X201.587 Y160.394 E9.69983
G1 X200.668 Y162.888 E9.78823
G1 X199.873 Y165.253 E9.87122
G1 X199.137 Y167.666 E9.95513
G1 X198.458 Y170.139 E10.04042
G1 X197.862 Y172.58 E10.124
G1 X197.331 Y175.059 E10.20832
G1 X196.871 Y177.541 E10.29227
G1 X196.484 Y180.025 E10.37589
G1 X196.165 Y182.535 E10.46004
G1 X195.917 Y185.055 E10.54426
G1 X195.74 Y187.577 E10.62835
G1 X195.635 Y190.108 E10.71261
G1 X195.6 Y192.634 E10.79663
G1 X195.599 Y200.099 E11.04492
G1 X195.589 Y200.826 E11.0691
G1 X195.536 Y201.745 E11.09972
G1 X195.404 Y202.656 E11.13033
G1 X195.193 Y203.552 E11.16095
G1 X194.906 Y204.427 E11.19158
G1 X194.543 Y205.273 E11.2222
G1 X194.109 Y206.085 E11.25282
G1 X193.605 Y206.856 E11.28346
G1 X193.037 Y207.58 E11.31406
G1 X192.408 Y208.252 E11.34468
G1 X191.723 Y208.867 E11.37529
G1 X190.987 Y209.42 E11.40591
G1 X190.206 Y209.908 E11.43654
G1 X189.386 Y210.326 E11.46716
G1 X188.532 Y210.671 E11.49779
G1 X187.652 Y210.94 E11.5284
G1 X186.751 Y211.133 E11.55904
G1 X185.838 Y211.246 E11.58964
G1 X185.288 Y211.276 E11.60796
G1 X184.67 Y211.289 E11.62852
G1 X181.556 Y211.288 E11.73209
G1 X180.855 Y211.278 E11.75541
G1 X179.936 Y211.225 E11.78603
G1 X179.025 Y211.092 E11.81665
G1 X178.129 Y210.881 E11.84727
G1 X177.254 Y210.593 E11.8779
G1 X176.408 Y210.23 E11.90852
G1 X175.597 Y209.795 E11.93913
G1 X174.826 Y209.291 E11.96977
G1 X174.102 Y208.722 E12.0004
G1 X173.43 Y208.093 E12.03101
G1 X172.815 Y207.408 E12.06163
G1 X172.262 Y206.672 E12.09225
G1 X171.754 Y205.852 E12.12433
G1 X171.442 Y205.292 E12.14565
G1 X170.604 Y203.744 E12.2042
G1 X169.335 Y201.55 E12.2885
G1 X168.009 Y199.403 E12.37243
G1 X166.64 Y197.318 E12.45539
G1 X165.16 Y195.198 E12.54138
G1 X163.677 Y193.195 E12.62428
G1 X162.109 Y191.2 E12.70867
G1 X160.495 Y189.261 E12.79258
G1 X158.614 Y187.131 E12.8871
G1 X158.096 Y186.507 E12.91407
G1 X157.549 Y185.767 E12.94468
G1 X156.862 Y184.592 E12.98995
G1 X156.685 Y184.239 E13.00308
G1 X156.309 Y183.399 E13.03369
G1 X155.932 Y182.269 E13.07331
G1 X155.817 Y181.846 E13.08789
G1 X155.615 Y180.948 E13.1185
G1 X155.506 Y180.194 E13.14384
G1 X155.415 Y179.338 E13.17247
G1 X155.304 Y178.169 E13.21153
G1 X154.995 Y175.65 E13.29594
G1 X154.619 Y173.175 E13.3792
G1 X154.168 Y170.677 E13.46363
G1 X153.65 Y168.211 E13.54744
G1 X153.063 Y165.762 E13.6312
G1 X152.4 Y163.304 E13.71588
G1 X151.662 Y160.853 E13.80101
G1 X150.878 Y158.489 E13.88385
G1 X150.01 Y156.098 E13.96845
G1 X149.042 Y153.653 E14.05592
G1 X148.675 Y152.766 E14.08784
G1 X148.359 Y151.895 E14.11866
G1 X148.169 Y151.29 E14.13975
G1 X147.999 Y150.7 E14.16017
G1 X147.792 Y149.803 E14.19079
G1 X147.674 Y149.166 E14.21234
G1 X147.58 Y148.585 E14.23191
G1 X147.481 Y147.668 E14.26259
G1 X147.444 Y147.094 E14.28172
G1 X147.418 Y146.478 E14.30223
G1 X147.429 Y145.521 E14.33406
G1 X147.465 Y144.883 E14.35531
G1 X147.516 Y144.251 E14.3764
G1 X147.634 Y143.37 E14.40597
G1 X147.742 Y142.76 E14.42657
G1 X147.864 Y142.154 E14.44713
G1 X148.095 Y141.258 E14.47791
G1 X148.269 Y140.687 E14.49776
G1 X148.448 Y140.143 E14.51681
G1 X148.804 Y139.226 E14.54953
G1 X149.071 Y138.623 E14.57146
G1 X149.317 Y138.1 E14.59068
G1 X149.806 Y137.195 E14.6249
G1 X150.255 Y136.454 E14.65371
G1 X150.919 Y135.484 E14.69281
G1 X151.309 Y134.977 E14.71409
G1 X151.684 Y134.512 E14.73395
G0 F6000 X151.993 Y134.767
G1 F1200 X152.578 Y134.115 E14.76309
G1 X153.028 Y133.655 E14.78449
G1 X153.453 Y133.241 E14.80423
G1 X154.106 Y132.667 E14.83314
G1 X154.574 Y132.29 E14.85313
G1 X155.075 Y131.907 E14.87411
G1 X155.786 Y131.421 E14.90275
G1 X156.304 Y131.098 E14.92305
G1 X156.798 Y130.804 E14.94217
G1 X157.708 Y130.332 E14.97627
G1 X158.514 Y129.964 E15.00574
G1 X159.582 Y129.547 E15.04387
G1 X160.188 Y129.349 E15.06508
G1 X160.782 Y129.171 E15.0857
G1 X161.627 Y128.964 E15.11464
G1 X162.131 Y128.863 E15.13173
G1 X162.74 Y128.755 E15.15231
G1 X163.677 Y128.639 E15.18371
G1 X164.329 Y128.589 E15.20546
G1 X164.913 Y128.557 E15.22491
G1 X165.805 Y128.556 E15.25458
G1 X166.396 Y128.581 E15.27425
G1 X166.994 Y128.62 E15.29419
G1 X167.881 Y128.726 E15.3239
G1 X168.522 Y128.831 E15.3455
G1 X169.059 Y128.931 E15.36367
G1 X169.969 Y129.15 E15.3948
G1 X170.517 Y129.309 E15.41378
G1 X171.181 Y129.52 E15.43695
G1 X172.026 Y129.838 E15.46698
G1 X172.697 Y130.152 E15.49162
G1 X173.489 Y130.586 E15.52166
G1 X174.239 Y131.088 E15.55167
G1 X174.689 Y131.438 E15.57064
G1 X175.548 Y132.147 E15.60768
G1 X176.016 Y132.547 E15.62816
G1 X176.767 Y133.218 E15.66165
G1 X178.765 Y134.958 E15.74978
G1 X180.716 Y136.563 E15.8338
G1 X182.71 Y138.112 E15.91778
G1 X184.792 Y139.635 E16.00358
G1 X186.853 Y141.055 E16.08682
G1 X189 Y142.448 E16.17195
G1 X191.16 Y143.763 E16.25606
G1 X193.349 Y145.014 E16.33991
G1 X196.737 Y146.796 E16.46723
G1 X197.517 Y147.251 E16.49727
G1 X198.253 Y147.774 E16.5273
G1 X198.941 Y148.36 E16.55736
G1 X199.574 Y149.004 E16.58739
G1 X200.147 Y149.702 E16.61743
G1 X200.656 Y150.447 E16.64744
G1 X201.098 Y151.235 E16.67749
G1 X201.468 Y152.059 E16.70753
G1 X201.764 Y152.912 E16.73756
G1 X201.983 Y153.788 E16.76759
G1 X202.124 Y154.68 E16.79763
G1 X202.185 Y155.581 E16.82767
G1 X202.167 Y156.484 E16.85771
G1 X202.068 Y157.382 E16.88775
G1 X201.891 Y158.268 E16.91781
G1 X201.508 Y159.484 E16.96021
G1 X201.205 Y160.271 E16.98826
G1 X200.296 Y162.739 E17.07573
G1 X199.498 Y165.113 E17.15903
G1 X198.745 Y167.581 E17.24486
G1 X198.079 Y170.01 E17.32863
G1 X197.469 Y172.507 E17.41412
G1 X196.94 Y174.974 E17.49804
G1 X196.478 Y177.473 E17.58256
G1 X196.086 Y179.985 E17.66712
G1 X195.768 Y182.482 E17.75085
G1 X195.518 Y185.024 E17.8358
G1 X195.34 Y187.566 E17.92055
G1 X195.235 Y190.087 E18.00448
G1 X195.2 Y192.628 E18.089
G1 X195.199 Y200.093 E18.33729
G1 X195.189 Y200.82 E18.36147
G1 X195.137 Y201.722 E18.39152
G1 X195.005 Y202.615 E18.42154
G1 X194.794 Y203.494 E18.45161
G1 X194.507 Y204.35 E18.48164
G1 X194.145 Y205.177 E18.51166
G1 X193.711 Y205.969 E18.5417
G1 X193.209 Y206.72 E18.57175
G1 X192.643 Y207.423 E18.60176
G1 X192.016 Y208.074 E18.63183
G1 X191.335 Y208.666 E18.66184
G1 X190.604 Y209.196 E18.69187
G1 X189.828 Y209.659 E18.72192
G1 X189.015 Y210.052 E18.75196
G1 X188.17 Y210.372 E18.78201
G1 X187.301 Y210.615 E18.81202
G1 X186.413 Y210.78 E18.84206
G1 X185.277 Y210.876 E18.87998
G1 X184.67 Y210.889 E18.90017
G1 X181.562 Y210.888 E19.00355
G1 X180.861 Y210.878 E19.02686
G1 X179.959 Y210.825 E19.05692
G1 X179.066 Y210.693 E19.08694
G1 X178.187 Y210.482 E19.11701
G1 X177.331 Y210.194 E19.14705
G1 X176.504 Y209.832 E19.17707
G1 X175.712 Y209.398 E19.20711
G1 X174.962 Y208.895 E19.23715
G1 X174.259 Y208.328 E19.26718
G1 X173.609 Y207.702 E19.2972
G1 X173.016 Y207.02 E19.32726
G1 X172.487 Y206.288 E19.3573
G1 X172.103 Y205.657 E19.38186
G1 X171.794 Y205.102 E19.40299
G1 X170.959 Y203.559 E19.46135
G1 X169.678 Y201.346 E19.54639
G1 X168.351 Y199.195 E19.63045
G1 X166.958 Y197.075 E19.71482
G1 X165.493 Y194.977 E19.79993
G1 X163.981 Y192.934 E19.88447
G1 X162.432 Y190.964 E19.96782
G1 X160.803 Y189.006 E20.05254
G1 X158.913 Y186.866 E20.1475
G1 X158.407 Y186.255 E20.17388
G1 X157.871 Y185.529 E20.2039
G1 X157.22 Y184.413 E20.24687
G1 X157.043 Y184.06 E20.26
G1 X156.674 Y183.235 E20.29006
G1 X156.318 Y182.164 E20.3276
G1 X156.203 Y181.741 E20.34218
G1 X156.005 Y180.86 E20.37221
G1 X155.904 Y180.152 E20.396
G1 X155.826 Y179.424 E20.42035
G1 X155.705 Y178.155 E20.46275
G1 X155.393 Y175.612 E20.54797
G1 X155.009 Y173.081 E20.63311
G1 X154.558 Y170.588 E20.71737
G1 X154.046 Y168.148 E20.8003
G1 X153.443 Y165.628 E20.88648
G1 X152.795 Y163.231 E20.96906
G1 X152.049 Y160.75 E21.05523
G1 X151.251 Y158.343 E21.13957
G1 X150.382 Y155.951 E21.22422
G1 X149.412 Y153.502 E21.31183
G1 X149.045 Y152.614 E21.34379
G1 X148.741 Y151.775 E21.37347
G1 X148.551 Y151.17 E21.39456
G1 X148.385 Y150.594 E21.4145
G1 X148.186 Y149.73 E21.44399
G1 X148.068 Y149.093 E21.46553
G1 X147.976 Y148.525 E21.48467
G1 X147.88 Y147.642 E21.51421
G1 X147.843 Y147.068 E21.53335
G1 X147.818 Y146.465 E21.55342
G1 X147.828 Y145.543 E21.58409
G1 X147.864 Y144.905 E21.60534
